;FLAVOR:RepRap
;TIME:11939
;Generated with Cura_SteamEngine master
; -- START GCODE --
M104 S205 ; Heat up extruder while leveling
M800 ; Custom GCODE to fire start print procedure
M109 S205 ; Makes sure the temperature is correct before printing
; -- end of START GCODE --
;LAYER_COUNT:294
;LAYER:0
M107
G1 F9600 E-2
G0 F4800 X77.222 Y101.834 Z.2
;TYPE:SKIRT
G1 F9600 E0
G1 F2400 X77.87 Y101.383 E0.02626
G1 X78.561 Y100.999 E0.05255
G1 X79.286 Y100.687 E0.0788
G1 X80.039 Y100.45 E0.10506
G1 X80.813 Y100.291 E0.13134
G1 X81.598 Y100.21 E0.15759
G1 X82 Y100.2 E0.17096
G1 X128 Y100.2 E1.70093
G1 X128.789 Y100.24 E1.72721
G1 X129.569 Y100.359 E1.75345
G1 X130.334 Y100.557 E1.77973
G1 X131.074 Y100.831 E1.80598
G1 X131.783 Y101.179 E1.83225
G1 X132.454 Y101.597 E1.85854
G1 X133.078 Y102.08 E1.88478
G1 X133.651 Y102.623 E1.91104
G1 X134.166 Y103.222 E1.93731
G1 X134.617 Y103.87 E1.96357
G1 X135.001 Y104.561 E1.98987
G1 X135.313 Y105.286 E2.01612
G1 X135.55 Y106.039 E2.04237
G1 X135.709 Y106.813 E2.06865
G1 X135.79 Y107.598 E2.0949
G1 X135.8 Y108 E2.10828
G1 X135.8 Y189 E4.80235
G1 X135.76 Y189.789 E4.82862
G1 X135.641 Y190.569 E4.85487
G1 X135.443 Y191.334 E4.88115
G1 X135.169 Y192.074 E4.9074
G1 X134.821 Y192.783 E4.93366
G1 X134.403 Y193.454 E4.95996
G1 X133.92 Y194.078 E4.9862
G1 X133.377 Y194.651 E5.01246
G1 X132.778 Y195.166 E5.03873
G1 X132.13 Y195.617 E5.06499
G1 X131.439 Y196.001 E5.09129
G1 X130.714 Y196.313 E5.11754
G1 X129.961 Y196.55 E5.14379
G1 X129.187 Y196.709 E5.17007
G1 X128.402 Y196.79 E5.19632
G1 X128 Y196.8 E5.2097
G1 X82 Y196.8 E6.73966
G1 X81.211 Y196.76 E6.76594
G1 X80.431 Y196.641 E6.79218
G1 X79.666 Y196.443 E6.81846
G1 X78.926 Y196.169 E6.84471
G1 X78.217 Y195.821 E6.87098
G1 X77.546 Y195.403 E6.89727
G1 X76.922 Y194.92 E6.92352
G1 X76.349 Y194.377 E6.94977
G1 X75.834 Y193.778 E6.97605
G1 X75.383 Y193.13 E7.00231
G1 X74.999 Y192.439 E7.0286
G1 X74.687 Y191.714 E7.05485
G1 X74.45 Y190.961 E7.08111
G1 X74.291 Y190.187 E7.10739
G1 X74.21 Y189.402 E7.13364
G1 X74.2 Y189 E7.14701
G1 X74.2 Y108 E9.84108
G1 X74.24 Y107.211 E9.86736
G1 X74.359 Y106.431 E9.8936
G1 X74.557 Y105.666 E9.91988
G1 X74.831 Y104.926 E9.94613
G1 X75.179 Y104.217 E9.9724
G1 X75.597 Y103.546 E9.99869
G1 X76.08 Y102.922 E10.02494
G1 X76.623 Y102.349 E10.05119
G1 X77.222 Y101.834 E10.07747
G0 F4800 X77.611 Y102.042
G1 F2400 X78.253 Y101.619 E10.10304
G1 X78.936 Y101.264 E10.12864
G1 X79.651 Y100.983 E10.15419
G1 X80.393 Y100.777 E10.1798
G1 X81.151 Y100.649 E10.20537
G1 X82 Y100.6 E10.23366
G1 X128 Y100.6 E11.76362
G1 X128.768 Y100.64 E11.7892
G1 X129.528 Y100.759 E11.81479
G1 X130.271 Y100.957 E11.84036
G1 X130.99 Y101.231 E11.86595
G1 X131.676 Y101.578 E11.89152
G1 X132.323 Y101.994 E11.91711
G1 X132.923 Y102.475 E11.94268
G1 X133.47 Y103.016 E11.96827
G1 X133.958 Y103.611 E11.99387
G1 X134.381 Y104.253 E12.01944
G1 X134.736 Y104.936 E12.04504
G1 X135.017 Y105.651 E12.07059
G1 X135.223 Y106.393 E12.0962
G1 X135.351 Y107.151 E12.12177
G1 X135.4 Y108 E12.15006
G1 X135.4 Y189 E14.84413
G1 X135.36 Y189.768 E14.86971
G1 X135.241 Y190.528 E14.89529
G1 X135.043 Y191.271 E14.92087
G1 X134.769 Y191.99 E14.94646
G1 X134.422 Y192.676 E14.97203
G1 X134.006 Y193.323 E14.99761
G1 X133.525 Y193.923 E15.02319
G1 X132.984 Y194.47 E15.04878
G1 X132.389 Y194.958 E15.07437
G1 X131.747 Y195.381 E15.09994
G1 X131.064 Y195.736 E15.12554
G1 X130.349 Y196.017 E15.1511
G1 X129.607 Y196.223 E15.17671
G1 X128.849 Y196.351 E15.20228
G1 X128 Y196.4 E15.23056
G1 X82 Y196.4 E16.76053
G1 X81.232 Y196.36 E16.78611
G1 X80.472 Y196.241 E16.81169
G1 X79.729 Y196.043 E16.83727
G1 X79.01 Y195.769 E16.86286
G1 X78.324 Y195.422 E16.88843
G1 X77.677 Y195.006 E16.91401
G1 X77.077 Y194.525 E16.93959
G1 X76.53 Y193.984 E16.96518
G1 X76.042 Y193.389 E16.99077
G1 X75.619 Y192.747 E17.01634
G1 X75.264 Y192.064 E17.04194
G1 X74.983 Y191.349 E17.0675
G1 X74.777 Y190.607 E17.09311
G1 X74.649 Y189.849 E17.11868
G1 X74.6 Y189 E17.14696
G1 X74.6 Y108 E19.84103
G1 X74.64 Y107.232 E19.86661
G1 X74.759 Y106.472 E19.8922
G1 X74.957 Y105.729 E19.91777
G1 X75.231 Y105.01 E19.94336
G1 X75.578 Y104.324 E19.96893
G1 X75.994 Y103.677 E19.99452
G1 X76.475 Y103.077 E20.02009
G1 X77.016 Y102.53 E20.04568
G1 X77.611 Y102.042 E20.07128
G0 F4800 X77.998 Y102.257
G1 F2400 X78.634 Y101.862 E20.09618
G1 X79.308 Y101.538 E20.12105
G1 X80.013 Y101.288 E20.14593
G1 X80.741 Y101.114 E20.17082
G1 X81.483 Y101.019 E20.1957
G1 X82 Y101 E20.21291
G1 X128 Y101 E21.74288
G1 X128.747 Y101.04 E21.76776
G1 X129.485 Y101.159 E21.79262
G1 X130.207 Y101.357 E21.81752
G1 X130.903 Y101.63 E21.84239
G1 X131.566 Y101.977 E21.86728
G1 X132.189 Y102.392 E21.89218
G1 X132.763 Y102.871 E21.91704
G1 X133.284 Y103.408 E21.94193
G1 X133.743 Y103.998 E21.96679
G1 X134.138 Y104.634 E21.99169
G1 X134.462 Y105.308 E22.01656
G1 X134.712 Y106.013 E22.04144
G1 X134.886 Y106.741 E22.06634
G1 X134.981 Y107.483 E22.09122
G1 X135 Y108 E22.10842
G1 X135 Y189 E24.8025
G1 X134.96 Y189.747 E24.82738
G1 X134.841 Y190.485 E24.85224
G1 X134.643 Y191.207 E24.87714
G1 X134.37 Y191.903 E24.90201
G1 X134.023 Y192.566 E24.9269
G1 X133.608 Y193.189 E24.95179
G1 X133.129 Y193.763 E24.97666
G1 X132.592 Y194.284 E25.00154
G1 X132.002 Y194.743 E25.02641
G1 X131.366 Y195.138 E25.05131
G1 X130.692 Y195.462 E25.07618
G1 X129.987 Y195.712 E25.10106
G1 X129.259 Y195.886 E25.12595
G1 X128.517 Y195.981 E25.15084
G1 X128 Y196 E25.16804
G1 X82 Y196 E26.69801
G1 X81.253 Y195.96 E26.72289
G1 X80.515 Y195.841 E26.74775
G1 X79.793 Y195.643 E26.77265
G1 X79.097 Y195.37 E26.79752
G1 X78.434 Y195.023 E26.82241
G1 X77.811 Y194.608 E26.84731
G1 X77.237 Y194.129 E26.87217
G1 X76.716 Y193.592 E26.89706
G1 X76.257 Y193.002 E26.92192
G1 X75.862 Y192.366 E26.94682
G1 X75.538 Y191.692 E26.97169
G1 X75.288 Y190.987 E26.99657
G1 X75.114 Y190.259 E27.02147
G1 X75.019 Y189.517 E27.04635
G1 X75 Y189 E27.06356
G1 X75 Y108 E29.75763
G1 X75.04 Y107.253 E29.78251
G1 X75.159 Y106.515 E29.80737
G1 X75.357 Y105.793 E29.83227
G1 X75.63 Y105.097 E29.85714
G1 X75.977 Y104.434 E29.88203
G1 X76.392 Y103.811 E29.90692
G1 X76.871 Y103.237 E29.93179
G1 X77.408 Y102.716 E29.95667
G1 X77.998 Y102.257 E29.98154
G0 F4800 X78.384 Y102.479
G1 F2400 X79.013 Y102.115 E30.00571
G1 X79.678 Y101.822 E30.02988
G1 X80.371 Y101.604 E30.05404
G1 X81.083 Y101.464 E30.07818
G1 X82 Y101.4 E30.10875
G1 X128 Y101.4 E31.63871
G1 X128.725 Y101.44 E31.66287
G1 X129.442 Y101.559 E31.68704
G1 X130.141 Y101.757 E31.7112
G1 X130.814 Y102.03 E31.73536
G1 X131.453 Y102.375 E31.75951
G1 X132.05 Y102.789 E31.78367
G1 X132.598 Y103.265 E31.80782
G1 X133.091 Y103.799 E31.83199
G1 X133.521 Y104.384 E31.85614
G1 X133.885 Y105.013 E31.88031
G1 X134.178 Y105.678 E31.90448
G1 X134.396 Y106.371 E31.92864
G1 X134.536 Y107.083 E31.95278
G1 X134.6 Y108 E31.98335
G1 X134.6 Y189 E34.67742
G1 X134.56 Y189.725 E34.70157
G1 X134.441 Y190.442 E34.72574
G1 X134.243 Y191.141 E34.74991
G1 X133.97 Y191.814 E34.77406
G1 X133.625 Y192.453 E34.79822
G1 X133.211 Y193.05 E34.82238
G1 X132.735 Y193.598 E34.84652
G1 X132.201 Y194.091 E34.8707
G1 X131.616 Y194.521 E34.89484
G1 X130.987 Y194.885 E34.91901
G1 X130.322 Y195.178 E34.94318
G1 X129.629 Y195.396 E34.96735
G1 X128.917 Y195.536 E34.99148
G1 X128 Y195.6 E35.02206
G1 X82 Y195.6 E36.55202
G1 X81.275 Y195.56 E36.57617
G1 X80.558 Y195.441 E36.60035
G1 X79.859 Y195.243 E36.62451
G1 X79.186 Y194.97 E36.64867
G1 X78.547 Y194.625 E36.67282
G1 X77.95 Y194.211 E36.69698
G1 X77.402 Y193.735 E36.72112
G1 X76.909 Y193.201 E36.7453
G1 X76.479 Y192.616 E36.76944
G1 X76.115 Y191.987 E36.79362
G1 X75.822 Y191.322 E36.81779
G1 X75.604 Y190.629 E36.84195
G1 X75.464 Y189.917 E36.86608
G1 X75.4 Y189 E36.89666
G1 X75.4 Y108 E39.59073
G1 X75.44 Y107.275 E39.61488
G1 X75.559 Y106.558 E39.63905
G1 X75.757 Y105.859 E39.66322
G1 X76.03 Y105.186 E39.68737
G1 X76.375 Y104.547 E39.71152
G1 X76.789 Y103.95 E39.73569
G1 X77.265 Y103.402 E39.75983
G1 X77.799 Y102.909 E39.784
G1 X78.384 Y102.479 E39.80815
G0 F4800 X78.768 Y102.709
G1 F2400 X79.389 Y102.377 E39.83157
G1 X80.043 Y102.117 E39.85498
G1 X80.723 Y101.933 E39.87841
G1 X81.419 Y101.827 E39.90183
G1 X82 Y101.8 E39.92117
G1 X128 Y101.8 E41.45114
G1 X128.703 Y101.84 E41.47456
G1 X129.397 Y101.959 E41.49798
G1 X130.072 Y102.157 E41.52137
G1 X130.721 Y102.429 E41.54478
G1 X131.335 Y102.774 E41.5682
G1 X131.906 Y103.185 E41.5916
G1 X132.427 Y103.659 E41.61503
G1 X132.891 Y104.189 E41.63846
G1 X133.291 Y104.768 E41.66186
G1 X133.623 Y105.389 E41.68529
G1 X133.883 Y106.043 E41.70869
G1 X134.067 Y106.723 E41.73212
G1 X134.173 Y107.419 E41.75554
G1 X134.2 Y108 E41.77488
G1 X134.2 Y189 E44.46896
G1 X134.16 Y189.703 E44.49237
G1 X134.041 Y190.397 E44.51579
G1 X133.843 Y191.072 E44.53919
G1 X133.571 Y191.721 E44.5626
G1 X133.226 Y192.335 E44.58602
G1 X132.815 Y192.906 E44.60942
G1 X132.341 Y193.427 E44.63285
G1 X131.811 Y193.891 E44.65628
G1 X131.232 Y194.291 E44.67968
G1 X130.611 Y194.623 E44.7031
G1 X129.957 Y194.883 E44.72651
G1 X129.277 Y195.067 E44.74994
G1 X128.581 Y195.173 E44.77336
G1 X128 Y195.2 E44.7927
G1 X82 Y195.2 E46.32267
G1 X81.297 Y195.16 E46.34609
G1 X80.603 Y195.041 E46.36951
G1 X79.928 Y194.843 E46.3929
G1 X79.279 Y194.571 E46.41631
G1 X78.665 Y194.226 E46.43973
G1 X78.094 Y193.815 E46.46313
G1 X77.573 Y193.341 E46.48656
G1 X77.109 Y192.811 E46.50999
G1 X76.709 Y192.232 E46.5334
G1 X76.377 Y191.611 E46.55682
G1 X76.117 Y190.957 E46.58022
G1 X75.933 Y190.277 E46.60366
G1 X75.827 Y189.581 E46.62707
G1 X75.8 Y189 E46.64642
G1 X75.8 Y108 E49.34049
G1 X75.84 Y107.297 E49.36391
G1 X75.959 Y106.603 E49.38733
G1 X76.157 Y105.928 E49.41072
G1 X76.429 Y105.279 E49.43413
G1 X76.774 Y104.665 E49.45755
G1 X77.185 Y104.094 E49.48095
G1 X77.659 Y103.573 E49.50438
G1 X78.189 Y103.109 E49.52781
G1 X78.768 Y102.709 E49.55121
G0 F4800 X79.15 Y102.948
G1 F2400 X79.762 Y102.649 E49.57387
G1 X80.404 Y102.424 E49.5965
G1 X81.069 Y102.275 E49.61916
G1 X82 Y102.2 E49.65023
G1 X128 Y102.2 E51.18019
G1 X128.68 Y102.24 E51.20285
G1 X129.35 Y102.359 E51.22548
G1 X130.002 Y102.556 E51.24814
G1 X130.626 Y102.828 E51.27078
G1 X131.214 Y103.172 E51.29343
G1 X131.758 Y103.582 E51.31609
G1 X132.249 Y104.053 E51.33872
G1 X132.683 Y104.578 E51.36138
G1 X133.052 Y105.15 E51.38402
G1 X133.351 Y105.762 E51.40667
G1 X133.576 Y106.404 E51.4293
G1 X133.725 Y107.069 E51.45196
G1 X133.8 Y108 E51.48303
G1 X133.8 Y189 E54.1771
G1 X133.76 Y189.68 E54.19976
G1 X133.641 Y190.35 E54.22239
G1 X133.444 Y191.002 E54.24504
G1 X133.172 Y191.626 E54.26768
G1 X132.828 Y192.214 E54.29034
G1 X132.418 Y192.758 E54.313
G1 X131.947 Y193.249 E54.33563
G1 X131.422 Y193.683 E54.35828
G1 X130.85 Y194.052 E54.38092
G1 X130.238 Y194.351 E54.40358
G1 X129.596 Y194.576 E54.4262
G1 X128.931 Y194.725 E54.44887
G1 X128 Y194.8 E54.47994
G1 X82 Y194.8 E56.0099
G1 X81.32 Y194.76 E56.03256
G1 X80.65 Y194.641 E56.05519
G1 X79.998 Y194.444 E56.07785
G1 X79.374 Y194.172 E56.10049
G1 X78.786 Y193.828 E56.12314
G1 X78.242 Y193.418 E56.1458
G1 X77.751 Y192.947 E56.16843
G1 X77.317 Y192.422 E56.19109
G1 X76.948 Y191.85 E56.21373
G1 X76.649 Y191.238 E56.23638
G1 X76.424 Y190.596 E56.25901
G1 X76.275 Y189.931 E56.28167
G1 X76.2 Y189 E56.31274
G1 X76.2 Y108 E59.00681
G1 X76.24 Y107.32 E59.02947
G1 X76.359 Y106.65 E59.0521
G1 X76.556 Y105.998 E59.07475
G1 X76.828 Y105.374 E59.09739
G1 X77.172 Y104.786 E59.12005
G1 X77.582 Y104.242 E59.14271
G1 X78.053 Y103.751 E59.16534
G1 X78.578 Y103.317 E59.18799
G1 X79.15 Y102.948 E59.21063
G0 F4800 X79.529 Y103.198
G1 F2400 X80.131 Y102.934 E59.2325
G1 X80.76 Y102.744 E59.25435
G1 X81.407 Y102.633 E59.27618
G1 X82 Y102.6 E59.29594
G1 X128 Y102.6 E60.8259
G1 X128.656 Y102.64 E60.84776
G1 X129.302 Y102.759 E60.86961
G1 X129.929 Y102.956 E60.89147
G1 X130.527 Y103.228 E60.91332
G1 X131.088 Y103.57 E60.93517
G1 X131.603 Y103.978 E60.95703
G1 X132.065 Y104.445 E60.97888
G1 X132.466 Y104.965 E61.00072
G1 X132.802 Y105.529 E61.02255
G1 X133.066 Y106.131 E61.04441
G1 X133.256 Y106.76 E61.06627
G1 X133.367 Y107.407 E61.0881
G1 X133.4 Y108 E61.10786
G1 X133.4 Y189 E63.80193
G1 X133.36 Y189.656 E63.82379
G1 X133.241 Y190.302 E63.84563
G1 X133.044 Y190.929 E63.86749
G1 X132.772 Y191.527 E63.88934
G1 X132.43 Y192.088 E63.9112
G1 X132.022 Y192.603 E63.93305
G1 X131.555 Y193.065 E63.9549
G1 X131.035 Y193.466 E63.97674
G1 X130.471 Y193.802 E63.99857
G1 X129.869 Y194.066 E64.02044
G1 X129.24 Y194.256 E64.04229
G1 X128.593 Y194.367 E64.06413
G1 X128 Y194.4 E64.08388
G1 X82 Y194.4 E65.61385
G1 X81.344 Y194.36 E65.6357
G1 X80.698 Y194.241 E65.65755
G1 X80.071 Y194.044 E65.67941
G1 X79.473 Y193.772 E65.70126
G1 X78.912 Y193.43 E65.72311
G1 X78.397 Y193.022 E65.74497
G1 X77.935 Y192.555 E65.76682
G1 X77.534 Y192.035 E65.78866
G1 X77.198 Y191.471 E65.81049
G1 X76.934 Y190.869 E65.83236
G1 X76.744 Y190.24 E65.85421
G1 X76.633 Y189.593 E65.87604
G1 X76.6 Y189 E65.8958
G1 X76.6 Y108 E68.58987
G1 X76.64 Y107.344 E68.61173
G1 X76.759 Y106.698 E68.63357
G1 X76.956 Y106.071 E68.65543
G1 X77.228 Y105.473 E68.67728
G1 X77.57 Y104.912 E68.69914
G1 X77.978 Y104.397 E68.72099
G1 X78.445 Y103.935 E68.74284
G1 X78.965 Y103.534 E68.76468
G1 X79.529 Y103.198 E68.78652
G0 F4800 X79.906 Y103.46
G1 F2400 X80.495 Y103.232 E68.80752
G1 X81.109 Y103.08 E68.82856
G1 X82 Y103 E68.85831
G1 X128 Y103 E70.38828
G1 X128.631 Y103.04 E70.40931
G1 X129.252 Y103.159 E70.43034
G1 X129.852 Y103.356 E70.45134
G1 X130.424 Y103.627 E70.4724
G1 X130.956 Y103.967 E70.4934
G1 X131.441 Y104.373 E70.51443
G1 X131.871 Y104.836 E70.53545
G1 X132.24 Y105.35 E70.55649
G1 X132.54 Y105.906 E70.57751
G1 X132.768 Y106.495 E70.59851
G1 X132.92 Y107.109 E70.61955
G1 X133 Y108 E70.64931
G1 X133 Y189 E73.34338
G1 X132.96 Y189.631 E73.36441
G1 X132.841 Y190.252 E73.38544
G1 X132.644 Y190.852 E73.40644
G1 X132.373 Y191.424 E73.42749
G1 X132.033 Y191.956 E73.44849
G1 X131.627 Y192.441 E73.46953
G1 X131.164 Y192.871 E73.49055
G1 X130.65 Y193.24 E73.51159
G1 X130.094 Y193.54 E73.5326
G1 X129.505 Y193.768 E73.55361
G1 X128.891 Y193.92 E73.57465
G1 X128 Y194 E73.6044
G1 X82 Y194 E75.13437
G1 X81.369 Y193.96 E75.1554
G1 X80.748 Y193.841 E75.17643
G1 X80.148 Y193.644 E75.19743
G1 X79.576 Y193.373 E75.21848
G1 X79.044 Y193.033 E75.23948
G1 X78.559 Y192.627 E75.26052
G1 X78.129 Y192.164 E75.28154
G1 X77.76 Y191.65 E75.30258
G1 X77.46 Y191.094 E75.32359
G1 X77.232 Y190.505 E75.3446
G1 X77.08 Y189.891 E75.36564
G1 X77 Y189 E75.39539
G1 X77 Y108 E78.08946
G1 X77.04 Y107.369 E78.11049
G1 X77.159 Y106.748 E78.13152
G1 X77.356 Y106.148 E78.15253
G1 X77.627 Y105.576 E78.17358
G1 X77.967 Y105.044 E78.19458
G1 X78.373 Y104.559 E78.21562
G1 X78.836 Y104.129 E78.23663
G1 X79.35 Y103.76 E78.25768
G1 X79.906 Y103.46 E78.27869
G0 F4800 X80.278 Y103.734
G1 F2400 X80.854 Y103.545 E78.29885
G1 X81.45 Y103.433 E78.31902
G1 X82 Y103.4 E78.33735
G1 X128 Y103.4 E79.86732
G1 X128.605 Y103.44 E79.88748
G1 X129.199 Y103.559 E79.90763
G1 X129.773 Y103.755 E79.9278
G1 X130.316 Y104.026 E79.94799
G1 X130.819 Y104.365 E79.96816
G1 X131.272 Y104.767 E79.98831
G1 X131.669 Y105.225 E80.00847
G1 X132.002 Y105.732 E80.02864
G1 X132.266 Y106.278 E80.04881
G1 X132.455 Y106.854 E80.06898
G1 X132.567 Y107.45 E80.08915
G1 X132.6 Y108 E80.10747
G1 X132.6 Y189 E82.80154
G1 X132.56 Y189.605 E82.82171
G1 X132.441 Y190.199 E82.84186
G1 X132.245 Y190.773 E82.86203
G1 X131.974 Y191.316 E82.88222
G1 X131.635 Y191.819 E82.90239
G1 X131.233 Y192.272 E82.92254
G1 X130.775 Y192.669 E82.9427
G1 X130.268 Y193.002 E82.96287
G1 X129.722 Y193.266 E82.98304
G1 X129.146 Y193.455 E83.0032
G1 X128.55 Y193.567 E83.02337
G1 X128 Y193.6 E83.0417
G1 X82 Y193.6 E84.57167
G1 X81.395 Y193.56 E84.59183
G1 X80.801 Y193.441 E84.61198
G1 X80.227 Y193.245 E84.63216
G1 X79.684 Y192.974 E84.65234
G1 X79.181 Y192.635 E84.67251
G1 X78.728 Y192.233 E84.69266
G1 X78.331 Y191.775 E84.71282
G1 X77.998 Y191.268 E84.73299
G1 X77.734 Y190.722 E84.75316
G1 X77.545 Y190.146 E84.77333
G1 X77.433 Y189.55 E84.7935
G1 X77.4 Y189 E84.81182
G1 X77.4 Y108 E87.50589
G1 X77.44 Y107.395 E87.52606
G1 X77.559 Y106.801 E87.54621
G1 X77.755 Y106.227 E87.56638
