;FLAVOR:RepRap
;TIME:995
M104 S205.000000
M109 S205.000000
; -- START GCODE --
M800        ; Custom GCODE to fire start print procedure
; -- end of START GCODE --
;Generated with Cura_SteamEngine 2.1.3
;LAYER_COUNT:200
;LAYER:0
M107
G1 F9600.000000 E-6.50000
G0 X98.954 Y139.486 Z0.200
;TYPE:SKIRT
G1 F9600.000 E0.00000
G1 F2400.00000 X99.615 Y139.054 E0.02626
G1 X100.609 Y138.565 E0.06311
G1 X101.288 Y138.289 E0.08749
G1 X102.034 Y138.029 E0.11376
G1 X103.184 Y137.785 E0.15286
G1 X103.934 Y137.684 E0.17803
G1 X104.721 Y137.618 E0.20430
G1 X105.893 Y137.668 E0.24332
G1 X106.644 Y137.757 E0.26847
G1 X107.422 Y137.890 E0.29472
G1 X108.555 Y138.234 E0.33410
G1 X109.259 Y138.508 E0.35923
G1 X109.980 Y138.831 E0.38551
G1 X110.964 Y139.430 E0.42382
G1 X111.580 Y139.870 E0.44900
G1 X112.198 Y140.361 E0.47525
G1 X113.024 Y141.206 E0.51455
G1 X113.511 Y141.787 E0.53977
G1 X113.987 Y142.417 E0.56603
G1 X114.570 Y143.434 E0.60502
G1 X114.896 Y144.116 E0.63016
G1 X115.200 Y144.845 E0.65643
G1 X115.515 Y145.986 E0.69580
G1 X115.660 Y146.729 E0.72098
G1 X115.771 Y147.511 E0.74725
G1 X115.790 Y148.687 E0.78637
G1 X115.745 Y149.442 E0.81153
G1 X115.658 Y150.227 E0.83780
G1 X115.385 Y151.364 E0.87669
G1 X115.153 Y152.086 E0.90191
G1 X114.874 Y152.825 E0.92818
G1 X114.357 Y153.809 E0.96515
G1 X113.974 Y154.427 E0.98934
G1 X113.525 Y155.076 E1.01558
G1 X112.756 Y155.935 E1.05393
G1 X112.210 Y156.461 E1.07915
G1 X111.614 Y156.980 E1.10543
G1 X110.969 Y157.435 E1.13169
G1 X110.624 Y157.641 E1.14505
G1 X109.963 Y158.013 E1.17028
G1 X109.256 Y158.365 E1.19655
G1 X108.154 Y158.751 E1.23538
G1 X107.422 Y158.947 E1.26059
G1 X106.650 Y159.112 E1.28684
G1 X105.477 Y159.212 E1.32600
G1 X104.720 Y159.219 E1.35118
G1 X103.931 Y159.186 E1.37744
G1 X103.149 Y159.074 E1.40372
G1 X102.732 Y158.980 E1.41793
G1 X101.986 Y158.791 E1.44353
G1 X101.232 Y158.559 E1.46977
G1 X100.186 Y158.088 E1.50792
G1 X99.529 Y157.732 E1.53278
G1 X98.855 Y157.321 E1.55903
G1 X97.939 Y156.591 E1.59799
G1 X97.383 Y156.075 E1.62322
G1 X96.832 Y155.509 E1.64949
G1 X96.121 Y154.565 E1.68880
G1 X95.713 Y153.928 E1.71396
G1 X95.321 Y153.242 E1.74024
G1 X94.873 Y152.163 E1.77910
G1 X94.636 Y151.444 E1.80428
G1 X94.427 Y150.682 E1.83056
G1 X94.261 Y149.517 E1.86970
G1 X94.211 Y148.762 E1.89486
G1 X94.199 Y147.973 E1.92111
G1 X94.329 Y146.803 E1.96026
G1 X94.469 Y146.060 E1.98541
G1 X94.654 Y145.292 E2.01168
G1 X95.071 Y144.194 E2.05075
G1 X95.392 Y143.509 E2.07591
G1 X95.763 Y142.812 E2.10217
G1 X96.433 Y141.861 E2.14086
G1 X96.913 Y141.278 E2.16598
G1 X97.445 Y140.695 E2.19223
G1 X98.343 Y139.931 E2.23144
G1 X98.954 Y139.486 E2.25659
G0 F9600.00000 X99.189 Y139.809
G1 F2400.000 X99.834 Y139.389 E2.28219
G1 X100.759 Y138.936 E2.31644
G1 X101.438 Y138.660 E2.34082
G1 X102.165 Y138.407 E2.36642
G1 X103.237 Y138.181 E2.40286
G1 X103.987 Y138.080 E2.42803
G1 X104.754 Y138.017 E2.45363
G1 X105.846 Y138.065 E2.48998
G1 X106.597 Y138.154 E2.51514
G1 X107.355 Y138.285 E2.54072
G1 X108.410 Y138.607 E2.57741
G1 X109.114 Y138.881 E2.60253
G1 X109.815 Y139.197 E2.62811
G1 X110.731 Y139.755 E2.66378
G1 X111.347 Y140.195 E2.68896
G1 X111.949 Y140.674 E2.71455
G1 X112.717 Y141.463 E2.75117
G1 X113.204 Y142.044 E2.77639
G1 X113.667 Y142.659 E2.80199
G1 X114.209 Y143.607 E2.83831
G1 X114.535 Y144.289 E2.86345
G1 X114.831 Y144.999 E2.88904
G1 X115.122 Y146.063 E2.92572
G1 X115.267 Y146.806 E2.95090
G1 X115.375 Y147.567 E2.97647
G1 X115.391 Y148.663 E3.01292
G1 X115.346 Y149.418 E3.03808
G1 X115.260 Y150.183 E3.06368
G1 X115.004 Y151.242 E3.09992
G1 X114.772 Y151.964 E3.12514
G1 X114.499 Y152.683 E3.15072
G1 X114.017 Y153.598 E3.18512
G1 X113.634 Y154.216 E3.20930
G1 X113.195 Y154.848 E3.23490
G1 X112.478 Y155.647 E3.27060
G1 X111.932 Y156.173 E3.29582
G1 X111.351 Y156.677 E3.32140
G1 X110.427 Y157.293 E3.35834
G1 X109.766 Y157.665 E3.38357
G1 X109.077 Y158.007 E3.40915
G1 X108.051 Y158.364 E3.44528
G1 X107.319 Y158.560 E3.47048
G1 X106.567 Y158.720 E3.49606
G1 X105.473 Y158.812 E3.53257
G1 X104.716 Y158.819 E3.55775
G1 X103.948 Y158.786 E3.58332
G1 X102.831 Y158.592 E3.62103
G1 X102.085 Y158.403 E3.64662
G1 X101.350 Y158.176 E3.67221
G1 X100.377 Y157.736 E3.70772
G1 X99.720 Y157.380 E3.73258
G1 X99.063 Y156.979 E3.75818
G1 X98.211 Y156.298 E3.79446
G1 X97.655 Y155.782 E3.81969
G1 X97.119 Y155.230 E3.84528
G1 X96.458 Y154.349 E3.88191
G1 X96.050 Y153.712 E3.90707
G1 X95.669 Y153.044 E3.93265
G1 X95.253 Y152.038 E3.96885
G1 X95.016 Y151.319 E3.99403
G1 X94.813 Y150.577 E4.01962
G1 X94.660 Y149.491 E4.05610
G1 X94.610 Y148.736 E4.08126
G1 X94.599 Y147.967 E4.10684
G1 X94.722 Y146.877 E4.14333
G1 X94.862 Y146.134 E4.16847
G1 X95.043 Y145.386 E4.19407
G1 X95.433 Y144.364 E4.23045
G1 X95.754 Y143.679 E4.25561
G1 X96.116 Y143.000 E4.28121
G1 X96.742 Y142.115 E4.31726
G1 X97.222 Y141.532 E4.34238
G1 X97.741 Y140.965 E4.36794
G1 X98.578 Y140.254 E4.40447
G1 X99.189 Y139.809 E4.42961
G0 F9600.00000 X99.425 Y140.133
G1 F2400.000 X100.052 Y139.725 E4.45449
G1 X100.910 Y139.306 E4.48625
G1 X101.589 Y139.030 E4.51063
G1 X102.296 Y138.786 E4.53550
G1 X103.291 Y138.578 E4.56931
G1 X104.041 Y138.477 E4.59448
G1 X104.786 Y138.417 E4.61934
G1 X105.799 Y138.463 E4.65307
G1 X106.550 Y138.552 E4.67822
G1 X107.287 Y138.679 E4.70310
G1 X108.265 Y138.980 E4.73713
G1 X108.969 Y139.254 E4.76226
G1 X109.651 Y139.562 E4.78715
G1 X110.499 Y140.081 E4.82021
G1 X111.115 Y140.521 E4.84539
G1 X111.699 Y140.988 E4.87026
G1 X112.411 Y141.720 E4.90423
G1 X112.898 Y142.301 E4.92944
G1 X113.347 Y142.899 E4.95431
G1 X113.849 Y143.779 E4.98801
G1 X114.175 Y144.461 E5.01315
G1 X114.461 Y145.152 E5.03803
G1 X114.729 Y146.139 E5.07204
G1 X114.874 Y146.882 E5.09722
G1 X114.978 Y147.623 E5.12211
G1 X114.992 Y148.639 E5.15590
G1 X114.947 Y149.394 E5.18106
G1 X114.862 Y150.138 E5.20597
G1 X114.623 Y151.119 E5.23955
G1 X114.391 Y151.841 E5.26477
G1 X114.125 Y152.540 E5.28965
G1 X113.677 Y153.387 E5.32152
G1 X113.294 Y154.005 E5.34570
G1 X112.867 Y154.619 E5.37057
G1 X112.201 Y155.359 E5.40369
G1 X111.655 Y155.885 E5.42890
G1 X111.089 Y156.375 E5.45380
G1 X110.231 Y156.944 E5.48804
G1 X109.570 Y157.316 E5.51327
G1 X108.900 Y157.648 E5.53814
G1 X107.948 Y157.978 E5.57165
G1 X107.216 Y158.174 E5.59686
G1 X106.484 Y158.328 E5.62174
G1 X105.470 Y158.412 E5.65558
G1 X104.713 Y158.419 E5.68076
G1 X103.965 Y158.386 E5.70566
G1 X102.929 Y158.205 E5.74064
G1 X102.183 Y158.016 E5.76624
G1 X101.469 Y157.793 E5.79111
G1 X100.567 Y157.385 E5.82404
G1 X99.910 Y157.029 E5.84889
G1 X99.272 Y156.638 E5.87378
G1 X98.483 Y156.005 E5.90743
G1 X97.927 Y155.489 E5.93266
G1 X97.407 Y154.951 E5.95754
G1 X96.794 Y154.133 E5.99154
G1 X96.386 Y153.496 E6.01670
G1 X96.017 Y152.846 E6.04156
G1 X95.633 Y151.912 E6.07515
G1 X95.396 Y151.193 E6.10033
G1 X95.200 Y150.471 E6.12521
G1 X95.059 Y149.465 E6.15900
G1 X95.009 Y148.710 E6.18416
G1 X95.000 Y147.962 E6.20904
G1 X95.115 Y146.951 E6.24289
G1 X95.255 Y146.208 E6.26803
G1 X95.433 Y145.481 E6.29293
G1 X95.795 Y144.534 E6.32665
G1 X96.116 Y143.849 E6.35181
G1 X96.470 Y143.189 E6.37672
G1 X97.051 Y142.370 E6.41012
G1 X97.531 Y141.787 E6.43524
G1 X98.037 Y141.235 E6.46014
G1 X98.814 Y140.578 E6.49398
G1 X99.425 Y140.133 E6.51913
G0 F9600.00000 X99.660 Y140.456
G1 F2400.000 X100.270 Y140.061 E6.54330
G1 X101.061 Y139.677 E6.57254
G1 X101.740 Y139.401 E6.59692
G1 X102.427 Y139.165 E6.62108
G1 X103.344 Y138.974 E6.65223
G1 X104.094 Y138.873 E6.67740
G1 X104.818 Y138.816 E6.70156
G1 X105.752 Y138.860 E6.73266
G1 X106.503 Y138.949 E6.75781
G1 X107.218 Y139.074 E6.78195
G1 X108.120 Y139.352 E6.81335
G1 X108.824 Y139.626 E6.83847
G1 X109.485 Y139.927 E6.86263
G1 X110.266 Y140.406 E6.89310
G1 X110.882 Y140.846 E6.91828
G1 X111.449 Y141.300 E6.94244
G1 X112.104 Y141.977 E6.97377
G1 X112.591 Y142.558 E6.99898
G1 X113.026 Y143.140 E7.02315
G1 X113.488 Y143.952 E7.05422
G1 X113.814 Y144.634 E7.07937
G1 X114.090 Y145.305 E7.10350
G1 X114.337 Y146.216 E7.13489
G1 X114.482 Y146.959 E7.16007
G1 X114.581 Y147.678 E7.18421
G1 X114.592 Y148.616 E7.21541
G1 X114.547 Y149.371 E7.24057
G1 X114.464 Y150.092 E7.26470
G1 X114.243 Y150.997 E7.29569
G1 X114.011 Y151.719 E7.32091
G1 X113.751 Y152.397 E7.34506
G1 X113.337 Y153.177 E7.37444
G1 X112.954 Y153.795 E7.39862
G1 X112.538 Y154.390 E7.42276
G1 X111.923 Y155.071 E7.45328
G1 X111.377 Y155.597 E7.47850
G1 X110.827 Y156.072 E7.50267
G1 X110.035 Y156.596 E7.53426
G1 X109.374 Y156.968 E7.55948
G1 X108.722 Y157.289 E7.58366
G1 X107.844 Y157.591 E7.61454
G1 X107.112 Y157.787 E7.63974
G1 X106.401 Y157.936 E7.66390
G1 X105.466 Y158.012 E7.69510
G1 X104.709 Y158.019 E7.72028
G1 X103.983 Y157.985 E7.74446
G1 X103.027 Y157.817 E7.77674
G1 X102.281 Y157.628 E7.80234
G1 X101.588 Y157.411 E7.82649
G1 X100.758 Y157.033 E7.85682
G1 X100.101 Y156.677 E7.88168
G1 X99.482 Y156.296 E7.90585
G1 X98.755 Y155.712 E7.93687
G1 X98.199 Y155.196 E7.96210
G1 X97.695 Y154.673 E7.98625
G1 X97.131 Y153.918 E8.01760
G1 X96.723 Y153.281 E8.04276
G1 X96.366 Y152.648 E8.06693
G1 X96.013 Y151.787 E8.09788
G1 X95.776 Y151.068 E8.12306
G1 X95.587 Y150.367 E8.14721
G1 X95.458 Y149.438 E8.17840
G1 X95.408 Y148.683 E8.20357
G1 X95.400 Y147.957 E8.22772
G1 X95.508 Y147.025 E8.25892
G1 X95.648 Y146.282 E8.28407
G1 X95.822 Y145.577 E8.30822
G1 X96.158 Y144.703 E8.33937
G1 X96.479 Y144.018 E8.36453
G1 X96.823 Y143.379 E8.38866
G1 X97.360 Y142.624 E8.41948
G1 X97.840 Y142.041 E8.44460
G1 X98.332 Y141.506 E8.46877
G1 X99.049 Y140.901 E8.49997
G1 X99.660 Y140.456 E8.52511
G0 F9600.00000 X99.896 Y140.779
G1 F2400.000 X100.488 Y140.398 E8.54853
G1 X101.211 Y140.047 E8.57526
G1 X101.890 Y139.771 E8.59964
G1 X102.556 Y139.544 E8.62304
G1 X103.398 Y139.370 E8.65164
G1 X104.148 Y139.269 E8.67681
G1 X104.849 Y139.215 E8.70019
G1 X105.705 Y139.257 E8.72870
G1 X106.456 Y139.346 E8.75385
G1 X107.149 Y139.468 E8.77725
G1 X107.975 Y139.725 E8.80603
G1 X108.679 Y139.999 E8.83115
G1 X109.319 Y140.291 E8.85455
G1 X110.034 Y140.732 E8.88249
G1 X110.650 Y141.172 E8.90767
G1 X111.198 Y141.613 E8.93106
G1 X111.798 Y142.234 E8.95978
G1 X112.285 Y142.815 E8.98500
G1 X112.705 Y143.380 E9.00841
G1 X113.127 Y144.124 E9.03686
G1 X113.453 Y144.806 E9.06201
G1 X113.720 Y145.458 E9.08544
G1 X113.944 Y146.292 E9.11416
G1 X114.089 Y147.035 E9.13934
G1 X114.185 Y147.733 E9.16277
G1 X114.193 Y148.592 E9.19135
G1 X114.148 Y149.347 E9.21650
G1 X114.066 Y150.046 E9.23991
G1 X113.862 Y150.875 E9.26830
G1 X113.630 Y151.597 E9.29353
G1 X113.377 Y152.254 E9.31694
G1 X112.997 Y152.966 E9.34379
G1 X112.614 Y153.584 E9.36797
G1 X112.210 Y154.160 E9.39137
G1 X111.646 Y154.783 E9.41932
G1 X111.100 Y155.309 E9.44454
G1 X110.566 Y155.768 E9.46796
G1 X109.839 Y156.247 E9.49691
G1 X109.178 Y156.619 E9.52214
G1 X108.546 Y156.929 E9.54555
G1 X107.741 Y157.205 E9.57386
G1 X107.009 Y157.401 E9.59906
G1 X106.319 Y157.544 E9.62250
G1 X105.462 Y157.612 E9.65109
G1 X104.705 Y157.619 E9.67627
G1 X104.002 Y157.585 E9.69968
G1 X103.125 Y157.429 E9.72931
G1 X102.379 Y157.240 E9.75490
G1 X101.708 Y157.029 E9.77830
G1 X100.948 Y156.681 E9.80610
G1 X100.291 Y156.325 E9.83095
G1 X99.692 Y155.955 E9.85437
G1 X99.027 Y155.418 E9.88280
G1 X98.471 Y154.902 E9.90803
G1 X97.983 Y154.395 E9.93143
G1 X97.468 Y153.702 E9.96015
G1 X97.060 Y153.065 E9.98531
G1 X96.715 Y152.452 E10.00871
G1 X96.393 Y151.662 E10.03708
G1 X96.156 Y150.943 E10.06226
G1 X95.974 Y150.263 E10.08567
G1 X95.858 Y149.412 E10.11424
G1 X95.808 Y148.657 E10.13941
G1 X95.801 Y147.953 E10.16282
G1 X95.901 Y147.099 E10.19142
G1 X96.041 Y146.356 E10.21657
G1 X96.211 Y145.673 E10.23998
G1 X96.520 Y144.873 E10.26850
G1 X96.841 Y144.188 E10.29366
G1 X97.175 Y143.569 E10.31706
G1 X97.669 Y142.878 E10.34531
G1 X98.149 Y142.295 E10.37043
G1 X98.626 Y141.778 E10.39382
G1 X99.285 Y141.224 E10.42246
G1 X99.896 Y140.779 E10.44760
G0 F9600.00000 X100.131 Y141.103
G1 F2400.000 X100.704 Y140.735 E10.47025
G1 X101.362 Y140.418 E10.49454
G1 X102.041 Y140.142 E10.51892
G1 X102.686 Y139.923 E10.54157
G1 X103.451 Y139.767 E10.56754
G1 X104.201 Y139.666 E10.59271
G1 X104.880 Y139.615 E10.61536
G1 X105.658 Y139.654 E10.64127
G1 X106.409 Y139.743 E10.66642
G1 X107.079 Y139.863 E10.68906
G1 X107.830 Y140.098 E10.71523
G1 X108.534 Y140.372 E10.74036
G1 X109.153 Y140.656 E10.76301
G1 X109.801 Y141.057 E10.78836
G1 X110.417 Y141.497 E10.81353
G1 X110.947 Y141.925 E10.83619
G1 X111.491 Y142.491 E10.86230
G1 X111.978 Y143.072 E10.88752
G1 X112.384 Y143.619 E10.91017
G1 X112.766 Y144.297 E10.93606
G1 X113.092 Y144.979 E10.96120
G1 X113.349 Y145.609 E10.98383
G1 X113.552 Y146.369 E11.00999
G1 X113.697 Y147.112 E11.03517
G1 X113.788 Y147.787 E11.05783
G1 X113.794 Y148.568 E11.08380
G1 X113.749 Y149.323 E11.10896
G1 X113.668 Y149.999 E11.13160
G1 X113.481 Y150.752 E11.15741
G1 X113.249 Y151.474 E11.18263
G1 X113.003 Y152.109 E11.20528
G1 X112.657 Y152.755 E11.22966
G1 X112.274 Y153.373 E11.25384
G1 X111.882 Y153.930 E11.27649
G1 X111.368 Y154.495 E11.30190
G1 X110.822 Y155.021 E11.32711
G1 X110.305 Y155.464 E11.34976
G1 X109.643 Y155.899 E11.37610
G1 X108.982 Y156.271 E11.40133
G1 X108.370 Y156.569 E11.42397
G1 X107.637 Y156.819 E11.44973
G1 X106.905 Y157.015 E11.47493
G1 X106.238 Y157.152 E11.49758
G1 X105.459 Y157.212 E11.52357
G1 X104.702 Y157.219 E11.54875
G1 X104.022 Y157.185 E11.57139
G1 X103.224 Y157.041 E11.59836
G1 X102.478 Y156.852 E11.62396
G1 X101.828 Y156.647 E11.64663
G1 X101.139 Y156.329 E11.67187
G1 X100.482 Y155.973 E11.69672
G1 X99.903 Y155.615 E11.71936
G1 X99.300 Y155.125 E11.74520
G1 X98.744 Y154.609 E11.77043
G1 X98.273 Y154.118 E11.79306
G1 X97.805 Y153.486 E11.81922
G1 X97.397 Y152.849 E11.84438
G1 X97.064 Y152.255 E11.86703
G1 X96.773 Y151.537 E11.89280
G1 X96.536 Y150.818 E11.91798
G1 X96.361 Y150.160 E11.94062
G1 X96.257 Y149.385 E11.96663
G1 X96.207 Y148.630 E11.99180
G1 X96.202 Y147.949 E12.01445
G1 X96.294 Y147.173 E12.04044
G1 X96.434 Y146.430 E12.06558
G1 X96.599 Y145.769 E12.08824
G1 X96.882 Y145.043 E12.11416
G1 X97.203 Y144.358 E12.13932
G1 X97.528 Y143.759 E12.16199
G1 X97.977 Y143.132 E12.18764
G1 X98.457 Y142.549 E12.21275
G1 X98.920 Y142.050 E12.23540
G1 X99.520 Y141.548 E12.26141
G1 X100.131 Y141.103 E12.28656
G0 F9600.00000 X100.367 Y141.426
G1 F2400.000 X100.920 Y141.072 E12.30839
G1 X101.513 Y140.788 E12.33026
G1 X102.192 Y140.512 E12.35464
G1 X102.814 Y140.303 E12.37646
G1 X103.504 Y140.163 E12.39988
G1 X104.254 Y140.062 E12.42505
G1 X104.910 Y140.014 E12.44693
G1 X105.610 Y140.052 E12.47025
G1 X106.361 Y140.141 E12.49540
G1 X107.008 Y140.257 E12.51726
G1 X107.685 Y140.471 E12.54088
G1 X108.389 Y140.745 E12.56600
G1 X108.985 Y141.020 E12.58783
G1 X109.569 Y141.383 E12.61070
G1 X110.185 Y141.823 E12.63588
G1 X110.695 Y142.237 E12.65773
G1 X111.184 Y142.748 E12.68125
G1 X111.671 Y143.329 E12.70647
G1 X112.062 Y143.857 E12.72832
G1 X112.405 Y144.469 E12.75166
G1 X112.731 Y145.151 E12.77680
G1 X112.978 Y145.760 E12.79866
G1 X113.159 Y146.446 E12.82225
G1 X113.304 Y147.189 E12.84743
G1 X113.390 Y147.840 E12.86927
G1 X113.394 Y148.544 E12.89269
G1 X113.349 Y149.299 E12.91784
G1 X113.271 Y149.951 E12.93968
G1 X113.100 Y150.630 E12.96297
G1 X112.868 Y151.352 E12.98820
G1 X112.629 Y151.964 E13.01005
G1 X112.317 Y152.545 E13.03198
G1 X111.934 Y153.163 E13.05616
G1 X111.555 Y153.699 E13.07800
G1 X111.090 Y154.207 E13.10090
G1 X110.544 Y154.733 E13.12612
G1 X110.045 Y155.159 E13.14794
G1 X109.446 Y155.550 E13.17173
G1 X108.785 Y155.922 E13.19696
G1 X108.194 Y156.209 E13.21881
G1 X107.534 Y156.432 E13.24198
G1 X106.802 Y156.628 E13.26719
G1 X106.158 Y156.759 E13.28905
G1 X105.455 Y156.812 E13.31249
G1 X104.698 Y156.819 E13.33767
G1 X104.042 Y156.785 E13.35952
G1 X103.322 Y156.654 E13.38386
G1 X102.576 Y156.465 E13.40946
G1 X101.950 Y156.265 E13.43132
G1 X101.329 Y155.978 E13.45407
G1 X100.672 Y155.622 E13.47892
G1 X100.115 Y155.274 E13.50077
G1 X99.572 Y154.832 E13.52405
G1 X99.016 Y154.316 E13.54928
G1 X98.562 Y153.841 E13.57114
G1 X98.142 Y153.271 E13.59469
G1 X97.734 Y152.634 E13.61985
G1 X97.414 Y152.060 E13.64170
G1 X97.152 Y151.412 E13.66495
G1 X96.915 Y150.693 E13.69013
G1 X96.748 Y150.057 E13.71200
